X:553
T:An Buachailli/n Ba/n
M:6/8
L:1/8
R:jig
D:Jackie Daly, "Many's a Wild Night", track 2(a)
K:Ador
"Am" EAA AGE | "Gsus4" GAB c2 d | "C" e/f/ge ded |
"G" BAB "Em" GED | "Am" EAA AGE | "Gsus4" GAB c2 d |
"C" e/f/ge "G" ded | "D" BAG A3 :||
||: "Am" eaa aga | "G" bab "Am" ged | "Em" eag e2 A|
"G" BAB "Em" GED | "Am" EAA AGE | "Gsus4" GAB c2 d |
"C" e/f/ge "G" ded | "D" BAG A3 :||
Am / | Gsus4 / | C / | G Em | Am / | Gsus4 | C G | D (or Am) :||
||: Am / | G Am  | Em / | G Em | Am / | Gsus4 | C G | D (or Am) :||


